X:1
T:We Plow the Fields and Scatter
T:Text: Matthias Claudius, 1782; tr. Jane Montgomery Campbell, 1861, alt. Tune: Johann A. P. Schulz, 1800; harm. John B. Dykes, 1861, alt.
T:76 76 D with refrain WIR PFLÜGEN www.hymnary.org/text/we_plow_the_fields_and_scatter
T:We Plow the Fields and Scatter
T:This hymn is in the public domain. You may freely use this score for personal and congregational worship. If you reproduce the score, please credit Hymnary.org as the source. 
T:This hymn is in the public domain. You may freely use this score for personal and congregational worship. If you reproduce the score, please credit Hymnary.org as the source. 
T:This hymn is in the public domain. You may freely use this score for personal and congregational worship. If you reproduce the score, please credit Hymnary.org as the source. 
Z:This hymn is in the public domain. You may freely use this score for personal and congregational worship. If you reproduce the score, please credit Hymnary.org as the source.
%%score ( 1 2 ) ( 3 4 5 )
L:1/8
M:4/4
K:Ab
V:1 treble nm="SOPRANO ALTO" snm="S. A."
V:2 treble 
V:3 bass nm="TENOR BASS" snm="T. B."
V:4 bass 
V:5 bass 
V:1
"^1""^2""^3" E2 | A2 A2 E2 E2 | c4 A2 E2 | D2 C2 B,2 A,2 | E6 | A2 | G2 F2 E2 c2 | (B2 A2) G2 E2 | %8
w: We|plow the fields and|scat- ter the|good seed on the|land,|but|it is fed and|wa- * tered by|
w: He|on- ly is the|ma- ker of|all things near and|far;|he|paints the way- side|flow- * er, he|
w: We|thank you, our Cre-|a- tor, for|all things bright and|good:|the|seed- time and the|har- * vest, our|
 F2 c2 B2 =D2 | E6 | E2 | B2 B2 c2 c2 | d4 B2 B2 | e2 e2 d2 c2 | B6 |1 E2 | A2 A2 E2 E2 | %17
w: God's al- might- y|hand.|He|sends the snow in|win- ter, the|warmth to swell the|grain,|the|breez- es and the|
w: lights the eve- ning|star.|The|wind and waves o-|bey him, by|him the birds are|fed;|much|more to us, his|
w: life, our health, our|food.|Ac-|cept the gifts we|of- fer for|all your love im-|parts;|ac-|cept what you most|
 F4 C2 C2 | D3 B, E2 G2 | A8 ||"^Page 2""^Refrain" A2 A2 A2 A2 | B4 B2 B2 | %22
w: sun- shine, and|soft re- fresh- ing|rain.|All good gifts a-|round us are|
w: chil- dren, he|gives our dai- ly|bread.|||
w: wel- come: our|hum- ble, thank- ful|hearts!|||
 c3 e"^We Plow the Fields and Scatter" d2 c2 | B6 | B2 | c2 B2 c3 B | A2 G2 A3 _E | (F2 B2 A2) G2 | %28
w: sent from heaven a-|bove;|then|thank the Lord, O|thank the Lord for|all * * his|
w: ||||||
w: ||||||
 A6 x2 |] %29
w: love.|
w: |
w: |
V:2
 E2 | A2 A2 E2 E2 | c4 A2 E2 | D2 C2 B,2 A,2 | x6 | E2 | E2 =D2 E2 E2 | (E2 =D2) E2 E2 | %8
 E2 E2 =D2 B,2 | B,6 | E2 | E2 E2 E2 E2 | F4 E2 G2 | A2 E2 G2 A2 | G6 |1 E2 | A2 A2 E2 E2 | %17
 F4 C2 C2 | D3 B, E2 D2 | C8 || C2 C2 E2 E2 | E4 E2 G2 | A3 A G2 A2 | G6 | E2 | E2 E2 E3 G | %26
 F2 =E2 F3 _E | (D2 F2 E2) E2 | E6 x2 |] %29
V:3
 x2 | x8 | x8 | x8 | x6 | x2 | [B,,B,]2 [A,,B,]2 [G,,B,]2 [A,,A,]2 | x8 | x8 | x6 | x2 | x8 | x8 | %13
 x8 | x6 |1 x2 | x8 | x8 | x8 | x8 || x8 | x8 | x8 | x6 | x2 | x8 | x8 | x8 | x8 |] %29
V:4
 E,2 | A,2 A,2 E,2 E,2 | C4 A,2 E,2 | D,2 C,2 B,,2 A,,2 | E,6 | A,2 | x8 | (G,2 F,2) E,2 B,2 | %8
 C2 A,2 F,2 A,2 | G,6 | E,2 | G,2 G,2 A,2 A,2 | A,4 G,2 E2 | E2 C2 D2 E2 | E6 |1 E,2 | %16
 A,2 A,2 E,2 E,2 | F,4 C,2 C,2 | D,3 B,, E,2 B,2 | A,8 || E,2 E,2 A,2 C2 | G,4 G,2 E2 | %22
 E3 C D2 E2 | E6 | G,2 | A,2 G,2 A,3 E | C2 C2 C3 A, | (A,2 D2 C2) B,2 | C6 x2 |] %29
V:5
 E,2 | A,2 A,2 E,2 E,2 | C4 A,2 E,2 | D,2 C,2 B,,2 A,,2 | E,6 | C,2 | x8 | B,,4 C,2 G,,2 | %8
 A,,2 A,,2 B,,2 B,,2 | E,6 | E,2 | D,2 D,2 C,2 C,2 | B,,4 E,2 D,2 | C,2 C2 B,2 A,2 | E,6 |1 E,2 | %16
 A,2 A,2 E,2 E,2 | F,4 C,2 C,2 | x3 B,, E,2 E,2 | A,,8 || A,,2 E,2 C,2 A,,2 | E,4 E,2 E,2 | %22
 A,3 C B,2 A,2 | E,6 | E,2 | A,2 E,2 x3 E, | F,2 C,2 F,3 C, | (D,2 B,,2 E,2) E,2 | A,,6 x2 |] %29

